X:1
T: Miss Mary Mackay's Reel
C:R. Mackintosh
R:Jig
Q: 180
K:C
M:6/8
L:1/8
|:c|c3 AGE|GEC GAB|cBc AGE|AFD D2B|cBc AGE|GAB cde|fga gaf|ecc c2c|
c3 AGE|GEC GAB|cBc AGE|AFD D2B|cBc AGE|GAB cde|fga gaf|ecc c2e1/2f1/2|
gec gec|fef agf|gec cde|dBG G2e1/2f1/2|gec gec|fga agf|efg fed|c3 c2e1/2f1/2|
gec gec|fga agf|gec cde|dBG AGF|EFG FGA|GAB cde|fag fed|c3 c2||
